svgs/thin/ufo-beam.svg

<svg xmlns="http://www.w3.org/2000/svg" viewBox="0 0 576 512"><!--! Font Awesome Pro 6.4.2 by @fontawesome - https://fontawesome.com License - https://fontawesome.com/license (Commercial License) Copyright 2023 Fonticons, Inc. --><path d="M138.8 165.6c-1.3-1.3-2.1-3-2.2-4.9c-1.4-15.9-.3-31.1 2.9-45.5c-36 9.1-65.8 21.3-87.2 35.4C27.8 166.8 16 184.2 16 201.1c0 12.4 6.3 25 19.5 37.3c13.2 12.4 32.7 23.8 57.5 33.7C142.5 291.7 211.4 304 288 304s145.5-12.3 195-31.9c24.8-9.8 44.3-21.3 57.5-33.7c13.2-12.3 19.5-25 19.5-37.3c0-16.9-11.8-34.3-36.3-50.4c-21.4-14.1-51.3-26.3-87.2-35.4c3.2 14.3 4.3 29.6 2.9 45.5c-.2 1.8-1 3.6-2.2 4.9l-5.7-5.6c5.7 5.6 5.7 5.6 5.7 5.6l0 0 0 0-.1 .1-.1 .1-.5 .5c-.4 .4-1 .9-1.7 1.5c-1.5 1.3-3.6 3-6.4 5c-5.7 4-14.3 9.3-26.3 14.5C378.2 197.8 341.2 208 288 208s-90.2-10.2-114-20.7c-11.9-5.2-20.5-10.5-26.3-14.5c-2.9-2-5-3.7-6.4-5c-.7-.6-1.3-1.1-1.7-1.5l-.5-.5-.1-.1-.1-.1 0 0 0 0s0 0 5.7-5.6l-5.7 5.6zM431.3 97.5c41.1 9.5 76 23.2 101.2 39.8c26.2 17.2 43.5 38.9 43.5 63.8c0 18.3-9.4 34.8-24.5 49c-15.2 14.2-36.6 26.6-62.5 36.9C437.1 307.5 366.1 320 288 320s-149.1-12.5-200.9-33.1c-25.9-10.3-47.4-22.7-62.5-36.9C9.4 235.9 0 219.3 0 201.1c0-24.9 17.3-46.5 43.5-63.8c25.2-16.6 60.2-30.2 101.2-39.8C166 39.5 223.6 0 288 0s122 39.5 143.3 97.5zM288 16c-76.4 0-140.9 61.3-135.7 140.2c1.1 .9 2.6 2.1 4.6 3.5c4.9 3.5 12.6 8.2 23.4 13C202.1 182.2 236.9 192 288 192s85.9-9.8 107.6-19.3c10.9-4.8 18.6-9.5 23.4-13c2-1.4 3.5-2.6 4.6-3.5C428.9 77.3 364.4 16 288 16zM272 256a16 16 0 1 1 32 0 16 16 0 1 1 -32 0zM96 176a16 16 0 1 1 0 32 16 16 0 1 1 0-32zm368 16a16 16 0 1 1 32 0 16 16 0 1 1 -32 0zM102.9 356l-88 152c-2.2 3.8-7.1 5.1-10.9 2.9s-5.1-7.1-2.9-10.9l88-152c2.2-3.8 7.1-5.1 10.9-2.9s5.1 7.1 2.9 10.9zm384-8l88 152c2.2 3.8 .9 8.7-2.9 10.9s-8.7 .9-10.9-2.9l-88-152c-2.2-3.8-.9-8.7 2.9-10.9s8.7-.9 10.9 2.9z"/></svg>

<svg xmlns="http://www.w3.org/2000/svg" viewBox="0 0 576 512"><!--! Font Awesome Pro 6.1.1 by @fontawesome - https://fontawesome.com License - https://fontawesome.com/license (Commercial License) Copyright 2022 Fonticons, Inc. --><path d="M304 256C304 264.8 296.8 272 288 272C279.2 272 272 264.8 272 256C272 247.2 279.2 240 288 240C296.8 240 304 247.2 304 256zM80 192C80 183.2 87.16 176 96 176C104.8 176 112 183.2 112 192C112 200.8 104.8 208 96 208C87.16 208 80 200.8 80 192V192zM496 192C496 200.8 488.8 208 480 208C471.2 208 464 200.8 464 192C464 183.2 471.2 176 480 176C488.8 176 496 183.2 496 192zM431.3 97.52C472.3 107.1 507.3 120.7 532.5 137.3C558.7 154.5 576 176.2 576 201.1C576 219.3 566.6 235.9 551.5 250.1C536.3 264.3 514.8 276.7 488.9 286.9C437.1 307.5 366.1 320 288 320C209.9 320 138.9 307.5 87.06 286.9C61.18 276.7 39.69 264.3 24.54 250.1C9.371 235.9 .0003 219.3 .0003 201.1C.0003 176.2 17.31 154.5 43.49 137.3C68.71 120.7 103.7 107.1 144.7 97.52C166 39.46 223.6 0 288 0C352.4 0 409.1 39.46 431.3 97.52V97.52zM136.6 160.7C135.2 144.8 136.3 129.6 139.5 115.2C103.6 124.3 73.7 136.5 52.29 150.6C27.82 166.8 16 184.2 16 201.1C16 213.4 22.3 226.1 35.47 238.4C48.66 250.8 68.18 262.3 92.96 272.1C142.5 291.7 211.4 304 288 304C364.6 304 433.5 291.7 483 272.1C507.8 262.3 527.3 250.8 540.5 238.4C553.7 226.1 560 213.4 560 201.1C560 184.2 548.2 166.8 523.7 150.6C502.3 136.5 472.4 124.3 436.5 115.2C439.7 129.6 440.8 144.8 439.4 160.7C439.2 162.5 438.4 164.3 437.1 165.6L431.4 160C437.2 165.6 437.2 165.6 437.1 165.6L437.1 165.6L437.1 165.7L436.9 165.8L436.4 166.3C436.1 166.7 435.5 167.2 434.8 167.8C433.3 169 431.2 170.8 428.3 172.8C422.6 176.8 413.1 182.1 402 187.3C378.2 197.8 341.2 208 287.1 208C234.8 208 197.8 197.8 173.1 187.3C162 182.1 153.4 176.8 147.7 172.8C144.8 170.8 142.7 169 141.2 167.8C140.5 167.2 139.9 166.7 139.6 166.3L139.1 165.8L138.9 165.7L138.9 165.6L138.8 165.6C138.8 165.6 138.8 165.6 144.6 160L138.8 165.6C137.6 164.3 136.8 162.5 136.6 160.7H136.6zM152.3 156.2C153.4 157.1 154.9 158.3 156.9 159.7C161.8 163.2 169.5 167.9 180.4 172.7C202.1 182.2 236.9 192 288 192C339.1 192 373.9 182.2 395.6 172.7C406.5 167.9 414.2 163.2 419.1 159.7C421.1 158.3 422.6 157.1 423.7 156.2C428.9 77.3 364.4 16 288 16C211.6 16 147.1 77.3 152.3 156.2H152.3zM14.92 508C12.71 511.8 7.816 513.1 3.992 510.9C.1683 508.7-1.137 503.8 1.077 499.1L89.08 347.1C91.29 344.2 96.18 342.9 100 345.1C103.8 347.3 105.1 352.2 102.9 356L14.92 508zM574.9 499.1C577.1 503.8 575.8 508.7 572 510.9C568.2 513.1 563.3 511.8 561.1 508L473.1 356C470.9 352.2 472.2 347.3 475.1 345.1C479.8 342.9 484.7 344.2 486.9 347.1L574.9 499.1z"/></svg>
